libs/ui/packages/crypto-icons/src/svg/ELIX.svg

<svg width="24" height="24" viewBox="0 0 24 24" fill="none">
<path d="M7.57278 17.7022L7.57428 17.6992L9.96529 11.9872L7.57278 6.27594L11.9865 11.9872L7.57578 17.6984L7.57278 17.7022ZM16.4048 17.7022L16.4018 17.6984L11.991 11.9872L16.4048 6.27594L14.0123 11.9872L16.4033 17.6992L16.4048 17.7022Z" fill="white"/>
<path d="M11.9888 11.9879V15.9674L7.57129 17.6999L11.9888 11.9849V8.00545L16.4063 6.27295L11.9888 11.9879Z" fill="white" fill-opacity="0.8"/>
<path d="M11.9888 15.9675V19.4557L7.57129 17.6977L11.9888 15.9615V11.988L7.57129 6.27296L11.9888 8.00546V4.51721L16.4063 6.27446L11.9888 8.01071V11.985L16.4063 17.7L11.9888 15.9675Z" fill="white" fill-opacity="0.5"/>
<path d="M7.57129 6.27446L11.9888 4.51721V8.01071L7.57129 6.27446ZM16.4063 17.6977L11.9888 19.4557V15.9615L16.4063 17.6977Z" fill="white" fill-opacity="0.145"/>
<path d="M7.58398 17.7157L7.58548 17.7127L9.97649 12.0007L7.58398 6.28949L11.9977 12.0007L7.58698 17.712L7.58398 17.7157ZM16.416 17.7157L16.413 17.712L12.0022 12.0007L16.416 6.28949L14.0235 12.0007L16.4145 17.7127L16.416 17.7157Z" fill="#00ADED"/>
<path d="M12 12.0015V15.981L7.58249 17.7135L12 11.9985V8.019L16.4175 6.2865L12 12.0015Z" fill="#00ADED" fill-opacity="0.8"/>
<path d="M12 15.981V19.4693L7.58249 17.7113L12 15.975V12.0015L7.58249 6.28651L12 8.01901V4.53076L16.4175 6.28801L12 8.02426V11.9985L16.4175 17.7135L12 15.981Z" fill="#00ADED" fill-opacity="0.5"/>
<path d="M7.58249 6.28801L12 4.53076V8.02426L7.58249 6.28801ZM16.4175 17.7113L12 19.4693V15.975L16.4175 17.7113Z" fill="#00ADED" fill-opacity="0.1"/>
</svg>

<svg width="24" height="24" viewBox="0 0 24 24" fill="none"><path fill="#fff" d="m7.573 17.702.001-.003 2.391-5.712-2.392-5.711 4.413 5.711-4.41 5.711zm8.832 0-.003-.004-4.411-5.71 4.414-5.712-2.393 5.711 2.391 5.712z"/><path fill="#fff" fill-opacity=".8" d="M11.989 11.988v3.98L7.57 17.7l4.418-5.715v-3.98l4.417-1.732z"/><path fill="#fff" fill-opacity=".5" d="M11.989 15.968v3.488L7.57 17.698l4.418-1.737v-3.973L7.57 6.273l4.418 1.732V4.517l4.417 1.757-4.417 1.737v3.974l4.417 5.715z"/><path fill="#fff" fill-opacity=".145" d="m7.571 6.274 4.418-1.757v3.494zm8.835 11.424-4.417 1.758V15.96z"/><path fill="#00aded" d="m7.584 17.716.001-.003L9.976 12 7.584 6.289l4.414 5.712-4.411 5.711zm8.832 0-.003-.004-4.41-5.711 4.413-5.712-2.392 5.712 2.39 5.712z"/><path fill="#00aded" fill-opacity=".8" d="M12 12.002v3.979l-4.418 1.733L12 11.999v-3.98l4.418-1.732z"/><path fill="#00aded" fill-opacity=".5" d="M12 15.981v3.488l-4.418-1.758L12 15.975v-3.973L7.582 6.287 12 8.019V4.531l4.418 1.757L12 8.024V12l4.418 5.714z"/><path fill="#00aded" fill-opacity=".1" d="M7.582 6.288 12 4.531v3.493zm8.836 11.423L12 19.47v-3.494z"/></svg>
